icons/svg/bell.svg

﻿<?xml version="1.0" encoding="utf-8"?>
<!DOCTYPE svg PUBLIC "-//W3C//DTD SVG 1.1//EN" "http://www.w3.org/Graphics/SVG/1.1/DTD/svg11.dtd">
<svg xmlns="http://www.w3.org/2000/svg" xmlns:xlink="http://www.w3.org/1999/xlink" version="1.1" baseProfile="full" width="24" height="24" viewBox="0 0 24.00 24.00" enable-background="new 0 0 24.00 24.00" xml:space="preserve">
	<path fill="#000000" fill-opacity="1" stroke-width="0.2" stroke-linejoin="round" d="M 14,20C 14,21.1046 13.1046,22 12,22C 10.8954,22 10,21.1046 10,20L 14,20 Z M 12,2.00001C 12.5523,2.00001 13,2.44772 13,3L 13,4.08298C 15.8377,4.55905 18,7.02702 18,10L 18,16L 21,19L 3,19L 6,16L 6.00001,9.99998C 6.00001,7.02698 8.1623,4.55902 11,4.08294L 11,3C 11,2.44772 11.4477,2.00001 12,2.00001 Z "/>
</svg>

<svg xmlns="http://www.w3.org/2000/svg" version="1.1" baseProfile="full" width="24" height="24" viewBox="0 0 24.00 24.00" xml:space="preserve"><path fill="#000" fill-opacity="1" stroke-width=".2" stroke-linejoin="round" d="M14 20c0 1.105-.895 2-2 2s-2-.895-2-2h4zM12 2c.552 0 1 .448 1 1v1.083c2.838.476 5 2.944 5 5.917v6l3 3H3l3-3v-6c0-2.973 2.162-5.44 5-5.917V3c0-.552.448-1 1-1z"/></svg>
